X: 118
T: W każdym ucisku swoim wołałem do Pana,
C: Mikołaj Gomółka
%%abc-version 2.0
%%abcx-abcm2ps-target-version 5.9.1 (29 Sep 2008)
%%abc-creator hum2abc beta
%%abcx-conversion-date 2021/10/04 07:59:10
%%abc-edited-by Anna Matuszewska
%%abcx-initial-encoding-date 2020-02-19
%%humdrum-veritas 3199046977
%%humdrum-veritas-data 3470246763
%%linebreak <none>
%%barnumbers 0
L: 1/4
M: C|
N: Derived from pl-wn--sd-xvi-qu-273--120_gomolka-mikolaj--w-kazdym-ucisku-swoim-wolalem-do-pana.krn
%%staves [1 2 3 4]
V: 1
V: 2 clef=alto
V: 3 clef=alto
V: 4 clef=bass
K: F
[V:1] G4d3d [I:setbarnb 3][|] 
[V:2] D4B,CD2 [|] 
[V:3] B,2>C2DEF2 [|] 
[V:4] G,4G,2D,2 [|] 
[V:1] cBB4A2 [|] 
[V:2] G2E2F3E [|] 
[V:3] _EDCB,C4 [|] 
[V:4] _E,2G,2F,4 [|] 
[V:1] B2d2d2d2 [|] 
[V:2] DCB,CDEF2 [|] 
[V:3] B,2F,2F,3G, [|] 
[V:4] B,,2B,,2>C,2D,E, [|] 
[V:1] c4B4 [|] 
[V:2] F2E2DCDE [|] 
[V:3] A,B,CA,B,A,B,C [|] 
[V:4] F,G,A,F,G,2G,,2 [|] 
[V:1] A2>G2ABcA [|] 
[V:2] F2EDCF2E [|] 
[V:3] D2C2>B,2A,2 [|] 
[V:4] D,2E,2F,2F,2 [|] 
[V:1] B4A2^c2 [|] 
[V:2] DCDEFGA2 [|] 
[V:3] D4C2E2 [|] 
[V:4] G,4A,2A,,2 [|] 
[V:1] d2cBA2BA [|] 
[V:2] F2E2F2D4 [|] 
[V:3] D2G,2F,2F,2 [|] 
[V:4] B,,2C,2D,2B,,2 [|] 
[V:1] GFG2^F4 [|] 
[V:2] C2D4 [|] 
[V:3] G,2G,2A,4 [|] 
[V:4] E,2E,2D,4 [|] 
[V:1] A4^F2G2 [|] 
[V:2] F4F2D2 [|] 
[V:3] D4D2B,3 [|] 
[V:4] D,4D,2G,4 [|] 
[V:1] A2A2B4 [|] 
[V:2] D2A,2G,2GF [|] 
[V:3] CD2D2D2 [|] 
[V:4] F,2G,2G,2 [|] 
[V:1] A2c2d3c [|] 
[V:2] E2F2F2F2 [|] 
[V:3] CB,A,G,F,2B,2 [|] 
[V:4] A,G,F,E,D,C,B,,2 [|] 
[V:1] BAB4A2 [|] 
[V:2] G2G2F3E [|] 
[V:3] B,2EDCB,C2 [|] 
[V:4] E,2E,2F,4 [|] 
[V:1] B2d2c2B2 [|] 
[V:2] D2F2F2D2 [|] 
[V:3] B,2B,2A,2G,2 [|] 
[V:4] B,,2B,,2F,,2G,,2 [|] 
[V:1] A2G^FG4 [|] 
[V:2] D2D4C2 [|] 
[V:3] B,2A,4G,2 [|] 
[V:4] D,2D,2_E,4 [|] 
[V:1] F2B4A2 [|] 
[V:2] D2D2>_E2FD [|] 
[V:3] A,2B,2>C2D2 [|] 
[V:4] D,2G,4F,2 [|] 
[V:1] G2G4F2 [|] 
[V:2] E2E2D3C [|] 
[V:3] B,2CB,A,G,A,2 [|] 
[V:4] _E,2C,2D,4 [|] 
[V:1] G8 [|] 
[V:2] B,8 [|] 
[V:3] G,8 [|] 
[V:4] G,,8 [|] 


